X: 73
T:Pearson's Hornpipe. BF13.072
M:4/4
Q:160
S:J.Lishman()MS,c1825,Lakes,Browne Coll.
R:Hornpipe
O:England
A:Lakes
Z:vmp.Chris Partington
K:G
D|G>FG>F GBdB|g3f edcB| cBAG GFED|C4B,4|!
D2c2c2ed|cBAG FEDC|B,dBG FADF|G2G2G2:|!
|:Bc|d^cde dB=cd|eaag fdef|gdBG ecAG|FGEFD2EF|!
GgdB GdcA|FAdf gdBG|ecAG FADF|G2G2G2:|]
